X: 12053
T: Errigal Braes
R: reel
M: 4/4
K: Dmajor
Addc d2d2|Ad (3efg fded|B=cBA FGAB|[M:2/4] =cAGE|
M:4/4
Dddc d2d2|Adeg fded|B=cBA G2AB|=cAGE FD D2||
FDGD FD D2|ED=c2 FD D2|FDGF ED=cA|GA=c2 FD D2|
FDGD FD D2|ED=cE FD D2|FDGF ED=cA|[M:2/4] GA =cE||

